legacy-app/src/assets/illustrations/na/camera.svg

<?xml version="1.0" encoding="UTF-8"?>
<svg height="64pt" version="1.1" viewBox="0 0 64 64" width="64pt" xmlns="http://www.w3.org/2000/svg">
  <defs>
    <linearGradient gradientTransform="matrix(0.372093,0,0,0.372093,0,0)" gradientUnits="userSpaceOnUse" id="linear0"
                    x1="60.46875" x2="60.46875" y1="73.72081" y2="115.53563">
      <stop offset="0" style="stop-color:rgb(98.823529%,95.294118%,99.215686%);stop-opacity:1;"/>
      <stop offset="1" style="stop-color:rgb(43.137255%,85.490196%,98.823529%);stop-opacity:1;"/>
    </linearGradient>
    <linearGradient gradientTransform="matrix(0.372093,0,0,0.372093,0,0)" gradientUnits="userSpaceOnUse" id="linear1"
                    x1="86" x2="86" y1="30.90625" y2="141.35981">
      <stop offset="0" style="stop-color:rgb(87.843137%,56.470588%,94.117647%);stop-opacity:1;"/>
      <stop offset="1" style="stop-color:rgb(1.960784%,74.117647%,96.078431%);stop-opacity:1;"/>
    </linearGradient>
    <linearGradient gradientTransform="matrix(0.372093,0,0,0.372093,0,0)" gradientUnits="userSpaceOnUse" id="linear2"
                    x1="142.4375" x2="142.4375" y1="30.90625" y2="141.35981">
      <stop offset="0" style="stop-color:rgb(87.843137%,56.470588%,94.117647%);stop-opacity:1;"/>
      <stop offset="1" style="stop-color:rgb(1.960784%,74.117647%,96.078431%);stop-opacity:1;"/>
    </linearGradient>
    <linearGradient gradientTransform="matrix(0.372093,0,0,0.372093,0,0)" gradientUnits="userSpaceOnUse" id="linear3"
                    x1="26.875" x2="26.875" y1="30.90625" y2="141.35981">
      <stop offset="0" style="stop-color:rgb(87.843137%,56.470588%,94.117647%);stop-opacity:1;"/>
      <stop offset="1" style="stop-color:rgb(1.960784%,74.117647%,96.078431%);stop-opacity:1;"/>
    </linearGradient>
    <linearGradient gradientTransform="matrix(0.372093,0,0,0.372093,0,0)" gradientUnits="userSpaceOnUse" id="linear4"
                    x1="112.875" x2="112.875" y1="30.90625" y2="141.35981">
      <stop offset="0" style="stop-color:rgb(87.843137%,56.470588%,94.117647%);stop-opacity:1;"/>
      <stop offset="1" style="stop-color:rgb(1.960784%,74.117647%,96.078431%);stop-opacity:1;"/>
    </linearGradient>
  </defs>
  <g id="surface1245036">
    <path d="M 26 29 L 26 42 C 22.132812 42 19 38.867188 19 35 C 19 31.132812 22.132812 28.25 26 28.25 "
          style=" stroke:none;fill-rule:nonzero;fill:url(#linear0);"/>
    <path
      d="M 58 32 L 49 32 L 49 23 C 49 20.242188 46.757812 18 44 18 L 43 18 C 43 16.898438 42.101562 16 41 16 L 39 16 C 37.898438 16 37 16.898438 37 18 L 34.722656 18 L 33.40625 14.050781 C 32.996094 12.824219 31.851562 12 30.558594 12 L 21.441406 12 C 20.148438 12 19.003906 12.824219 18.597656 14.050781 L 17.277344 18 L 15 18 C 15 16.898438 14.101562 16 13 16 L 11 16 C 9.898438 16 9 16.898438 9 18 L 8 18 C 5.242188 18 3 20.242188 3 23 L 3 47 C 3 49.757812 5.242188 52 8 52 L 58 52 C 59.652344 52 61 50.652344 61 49 L 61 35 C 61 33.347656 59.652344 32 58 32 Z M 59 35 L 59 39.585938 L 51.949219 46.636719 L 47.054688 42.445312 C 45.875 41.429688 44.085938 41.5 42.984375 42.601562 L 37 48.585938 L 37 35 C 37 34.449219 37.449219 34 38 34 L 58 34 C 58.550781 34 59 34.449219 59 35 Z M 48.585938 50 L 38.414062 50 L 44.398438 44.015625 C 44.765625 43.648438 45.359375 43.625 45.753906 43.964844 L 50.527344 48.054688 Z M 20.492188 14.683594 C 20.628906 14.273438 21.011719 14 21.441406 14 L 30.558594 14 C 30.988281 14 31.371094 14.273438 31.507812 14.683594 L 32.613281 18 L 19.386719 18 Z M 5 47 L 5 42 L 9 42 L 9 40 L 5 40 L 5 38 L 9 38 L 9 36 L 5 36 L 5 34 L 9 34 L 9 32 L 5 32 L 5 30 L 9 30 L 9 28 L 5 28 L 5 23 C 5 21.347656 6.347656 20 8 20 L 44 20 C 45.652344 20 47 21.347656 47 23 L 47 32 L 38 32 C 37.515625 32 37.0625 32.125 36.660156 32.332031 C 35.460938 27.554688 31.144531 24 26 24 C 19.933594 24 15 28.933594 15 35 C 15 41.066406 19.933594 46 26 46 C 29.71875 46 33.007812 44.140625 35 41.304688 L 35 49 C 35 49.351562 35.070312 49.6875 35.183594 50 L 8 50 C 6.347656 50 5 48.652344 5 47 Z M 35 35 C 35 39.960938 30.964844 44 26 44 C 21.035156 44 17 39.960938 17 35 C 17 30.039062 21.035156 26 26 26 C 30.964844 26 35 30.039062 35 35 Z M 58 50 L 51.414062 50 L 59 42.414062 L 59 49 C 59 49.550781 58.550781 50 58 50 Z M 58 50 "
      style=" stroke:none;fill-rule:nonzero;fill:url(#linear1);"/>
    <path d="M 51 37 L 55 37 L 55 39 L 51 39 Z M 51 37 " style=" stroke:none;fill-rule:nonzero;fill:url(#linear2);"/>
    <path
      d="M 11 22 L 9 22 C 7.898438 22 7 22.898438 7 24 C 7 25.101562 7.898438 26 9 26 L 11 26 C 12.101562 26 13 25.101562 13 24 C 13 22.898438 12.101562 22 11 22 Z M 11 22 "
      style=" stroke:none;fill-rule:nonzero;fill:url(#linear3);"/>
    <path
      d="M 41 26 L 43 26 C 44.101562 26 45 25.101562 45 24 C 45 22.898438 44.101562 22 43 22 L 41 22 C 39.898438 22 39 22.898438 39 24 C 39 25.101562 39.898438 26 41 26 Z M 41 26 "
      style=" stroke:none;fill-rule:nonzero;fill:url(#linear4);"/>
  </g>
</svg>

<svg height="64px" viewBox="0 0 64 64" width="64px" xmlns="http://www.w3.org/2000/svg">
  <linearGradient gradientUnits="userSpaceOnUse" id="CgPoTRD02K0s~sDU3U2oqa" spreadMethod="reflect" x1="22.5" x2="22.5"
                  y1="27.431" y2="42.99">
    <stop offset="0" stop-color="#6dc7ff"/>
    <stop offset="1" stop-color="#e6abff"/>
  </linearGradient>
  <path d="M26,29v13c-3.866,0-7-3.134-7-7s3.134-6.75,7-6.75" fill="url(#CgPoTRD02K0s~sDU3U2oqa)"/>
  <linearGradient gradientUnits="userSpaceOnUse" id="CgPoTRD02K0s~sDU3U2oqb" spreadMethod="reflect" x1="32" x2="32"
                  y1="11.5" y2="52.599">
    <stop offset="0" stop-color="#1a6dff"/>
    <stop offset="1" stop-color="#c822ff"/>
  </linearGradient>
  <path
    d="M58,32h-9v-9c0-2.757-2.243-5-5-5h-1c0-1.103-0.897-2-2-2h-2c-1.103,0-2,0.897-2,2h-2.279 l-1.316-3.949C32.995,12.824,31.852,12,30.559,12h-9.117c-1.293,0-2.437,0.824-2.846,2.051L17.279,18H15c0-1.103-0.897-2-2-2h-2 c-1.103,0-2,0.897-2,2H8c-2.757,0-5,2.243-5,5v24c0,2.757,2.243,5,5,5h30h20c1.654,0,3-1.346,3-3V35C61,33.346,59.654,32,58,32z M59,35v4.586l-7.052,7.052l-4.892-4.193c-1.182-1.015-2.97-0.946-4.071,0.156L37,48.586V35c0-0.551,0.448-1,1-1h20 C58.552,34,59,34.449,59,35z M48.586,50H38.414l5.984-5.985c0.367-0.367,0.962-0.389,1.355-0.052l4.776,4.093L48.586,50z M20.492,14.684C20.629,14.275,21.011,14,21.441,14h9.117c0.431,0,0.813,0.275,0.949,0.684L32.613,18H19.387L20.492,14.684z M5,47 v-5h4v-2H5v-2h4v-2H5v-2h4v-2H5v-2h4v-2H5v-5c0-1.654,1.346-3,3-3h5h5.721h14.559H40h4c1.654,0,3,1.346,3,3v9h-9 c-0.484,0-0.936,0.126-1.341,0.331C35.461,27.553,31.143,24,26,24c-6.065,0-11,4.935-11,11s4.935,11,11,11 c3.72,0,7.008-1.861,9-4.695V49c0,0.352,0.072,0.686,0.184,1H8C6.346,50,5,48.654,5,47z M35,35c0,4.962-4.037,9-9,9s-9-4.038-9-9 s4.037-9,9-9S35,30.038,35,35z M58,50h-6.586L59,42.414V49C59,49.551,58.552,50,58,50z"
    fill="url(#CgPoTRD02K0s~sDU3U2oqb)"/>
  <linearGradient gradientUnits="userSpaceOnUse" id="CgPoTRD02K0s~sDU3U2oqc" spreadMethod="reflect" x1="53" x2="53"
                  y1="11.5" y2="52.599">
    <stop offset="0" stop-color="#1a6dff"/>
    <stop offset="1" stop-color="#c822ff"/>
  </linearGradient>
  <path d="M51 37H55V39H51z" fill="url(#CgPoTRD02K0s~sDU3U2oqc)"/>
  <linearGradient gradientUnits="userSpaceOnUse" id="CgPoTRD02K0s~sDU3U2oqd" spreadMethod="reflect" x1="10" x2="10"
                  y1="11.5" y2="52.599">
    <stop offset="0" stop-color="#1a6dff"/>
    <stop offset="1" stop-color="#c822ff"/>
  </linearGradient>
  <path d="M11,22H9c-1.103,0-2,0.897-2,2s0.897,2,2,2h2c1.103,0,2-0.897,2-2S12.103,22,11,22z"
        fill="url(#CgPoTRD02K0s~sDU3U2oqd)"/>
  <linearGradient gradientUnits="userSpaceOnUse" id="CgPoTRD02K0s~sDU3U2oqe" spreadMethod="reflect" x1="42" x2="42"
                  y1="11.5" y2="52.599">
    <stop offset="0" stop-color="#1a6dff"/>
    <stop offset="1" stop-color="#c822ff"/>
  </linearGradient>
  <path d="M41,26h2c1.103,0,2-0.897,2-2s-0.897-2-2-2h-2c-1.103,0-2,0.897-2,2S39.897,26,41,26z"
        fill="url(#CgPoTRD02K0s~sDU3U2oqe)"/>
</svg>
